_inc/images/systems/logos/retroarch.svg

<svg style="enable-background:new 0 0 564.2 91" viewBox="0 0 264 42" xmlns="http://www.w3.org/2000/svg">
    <path d="M247.877 10.859c.233.889.514 1.731.748 2.573.281 1.029.281 1.076 1.403 1.029.609-.047.702.187.702.748v26.478c0 .421.094.608.562.608a13.696 13.696 0 0 1 1.964 0c.608.047.702-.187.702-.748 0-8.748 0-17.543-.047-26.291 0-.608.094-.842.795-.795a99.14 99.14 0 0 0 5.287 0c.608 0 .748.14.748.748-.047 8.14 0 16.28 0 24.42 0 .701.047 1.45 0 2.152 0 .421.14.514.515.514.655-.047 1.31-.047 1.964 0 .655.047.749-.14.749-.748V1.316c.047-.328-.094-.375-.374-.375-.749 0-1.45.047-2.199 0-.515-.046-.655.141-.655.655.047 2.854 0 5.754.047 8.608 0 .515-.094.702-.655.702a106.237 106.237 0 0 0-5.473 0c-.515 0-.655-.094-.655-.655.047-2.901 0-5.848.047-8.748 0-.468-.141-.608-.562-.562a13.71 13.71 0 0 1-1.965 0c-.514-.046-.701.094-.701.655.046 2.901 0 5.848.046 8.748 0 .421-.093.562-.561.562-.889-.047-1.637-.047-2.432-.047Zm-162.796 0c.281.982.609 1.871.796 2.76.14.748.467.982 1.169.842.608-.094.795.094.749.748-.047 8.327 0 16.701 0 25.028v1.59c0 .375.14.421.467.421h8.842c.374 0 .468-.093.468-.467a22.662 22.662 0 0 1 0-2.527c0-.467-.094-.654-.608-.654-1.778.046-3.509 0-5.287.046-.561 0-.701-.187-.701-.701V15.069c0-.514.14-.655.655-.655 2.152.047 4.303 0 6.455 0 .468 0 .562-.14.375-.561-.281-.795-.609-1.638-.843-2.433-.14-.468-.374-.655-.888-.655-1.731.047-3.415 0-5.146.047-.562 0-.702-.187-.655-.702a95.61 95.61 0 0 0 0-5.192c0-.562.187-.655.702-.655 1.777.047 3.508 0 5.286 0 .514 0 .655-.14.608-.655a17.906 17.906 0 0 1 0-2.246c.047-.514-.187-.608-.655-.608-2.854 0-5.66.047-8.514 0-.561 0-.655.187-.655.655.047 2.901 0 5.848 0 8.748 0 .421-.093.562-.561.562-.562.14-1.263.14-2.059.14Zm139.78 10.245c.046 4.584.935 8.654 3.134 12.303 3.415 5.707 8.514 8.654 15.204 8.888.561 0 .701-.187.654-.702a18.278 18.278 0 0 1 0-2.245c.047-.515-.093-.702-.654-.702-5.988-.187-10.292-3.087-12.959-8.327-2.011-4.023-2.526-8.28-1.684-12.677.655-3.462 2.012-6.596 4.538-9.122 2.76-2.76 6.081-4.164 10.011-4.21.655 0 .795-.187.748-.796a19.05 19.05 0 0 1 0-2.292c0-.421-.093-.561-.514-.561-.655.047-1.357.047-2.012.14-4.444.515-8.233 2.386-11.18 5.754-3.743 4.257-5.146 9.356-5.286 14.549Zm-118.822 2.245V41.5c0 .608.093.889.795.795a10.074 10.074 0 0 1 1.684 0c.655.047.889-.093.889-.842-.047-12.022 0-24.045-.047-36.114 0-.749.234-.889.889-.842.936.047 1.871 0 2.807 0 .374 0 .515-.094.468-.468-.047-.889 0-1.824 0-2.713 0-.328-.094-.421-.421-.421h-10.666c-.374 0-.468.14-.468.467 0 .843.047 1.685 0 2.527 0 .467.094.655.608.608.936-.047 1.871 0 2.807-.047.561-.047.702.14.702.702-.047 6.081-.047 12.163-.047 18.197Zm-46.032 1.778a980.86 980.86 0 0 1-3.134-12.537c-.094-.421-.281-.515-.655-.515a24.36 24.36 0 0 1-2.62 0c-.514-.047-.561.14-.421.562l1.544 6.175c.14.514.094.701-.515.654a87.401 87.401 0 0 0-4.911 0c-.515 0-.702-.14-.796-.608-.514-2.105-1.029-4.163-1.543-6.221-.094-.422-.234-.562-.702-.562-2.573.047-5.099 0-7.672 0-.187 0-.374.094-.515-.14 1.263-1.544 2.526-3.134 3.883-4.772h-3.134c-.374 0-.655.094-.889.421-1.17 1.404-2.386 2.76-3.602 4.117-.234.281-.468.421-.889.421h-6.877c-.374 0-.655-.094-.888-.374-1.17-1.404-2.386-2.76-3.603-4.117-.14-.187-.233-.421-.514-.421h-3.509c1.357 1.684 2.62 3.275 3.977 4.912h-8.234c-.467 0-.701.093-.795.608-.468 2.012-1.029 3.976-1.45 5.941-.14.702-.421.889-1.123.842a76.068 76.068 0 0 0-4.631 0c-.561 0-.702-.093-.515-.655.562-2.058 1.03-4.116 1.591-6.175.14-.468 0-.608-.468-.561-.748.047-1.544.047-2.339 0-.608-.047-.842.14-.982.748-.983 4.024-2.012 8.047-2.994 12.07-.187.795-.187.795.561.795h8.514c.468 0 .608.094.468.608-.374 1.263-.608 2.526-.982 3.789-.141.515 0 .562.467.562h7.813c.234 0 .467-.094.701.093-2.105 2.386-4.21 4.772-6.362 7.251h5.427c.234 0 .327-.234.468-.374a365.01 365.01 0 0 0 5.286-6.549c.28-.328.561-.468.982-.468h12.911c.515 0 .796.14 1.123.514 1.731 2.152 3.462 4.257 5.193 6.363.14.187.28.467.561.467h5.427a484.085 484.085 0 0 1-6.456-7.391H51.4c-.421-1.637-.796-3.228-1.217-4.912h9.216c.515 0 .749 0 .608-.561Zm-37.564-3.181h-5.286c-.328 0-.422-.094-.422-.421v-5.333c0-.328.094-.421.422-.421h5.286c.421 0 .514.187.467.561v5.099c.047.374-.046.562-.467.515Zm20.396 0h-5.286c-.328 0-.421-.047-.421-.421v-5.333c0-.328.093-.421.421-.421h5.286c.374 0 .468.093.468.468v5.239c.046.421-.141.515-.468.468ZM200.254 6.041v-.843c-.14-2.011-1.029-3.555-2.9-4.397-1.684-.748-3.415-.889-5.193-.468-2.619.655-4.023 2.246-4.257 4.865-.14 1.685-.093 3.369-.046 5.053 0 .514-.094.701-.655.655-.655-.047-1.357 0-2.106 0 .281.982.609 1.871.796 2.806.14.702.468.936 1.122.843.702-.141.843.187.796.842 0 8.747 0 17.542-.047 26.29 0 .515.094.749.655.702a13.058 13.058 0 0 1 1.918 0c.655.093.795-.187.795-.796 0-8.747 0-17.542-.047-26.29 0-.655.187-.748.749-.748 1.45.046 2.9.046 4.35 0 .562 0 .702.14.702.701v26.618c0 .421.094.515.515.515a15.73 15.73 0 0 1 2.105 0c.608.047.795-.094.748-.749V6.041Zm-3.929 4.818c-.749-.047-1.544 0-2.339 0h-2.48c-.327 0-.421-.094-.421-.421V5.76c0-.655.328-1.17.936-1.45 1.31-.655 2.62-.655 3.93-.047.654.327.982.842.982 1.59 0 1.497-.047 2.994 0 4.491 0 .468-.187.562-.608.515Zm-25.355-4.21c-6.409-7.345-16.981-8.421-24.607-2.433-5.52 4.351-7.952 10.292-8.139 16.701.047 6.409 1.918 11.601 5.988 15.858 6.268 6.643 15.765 7.719 23.156 2.62 5.426-3.743 8.327-9.076 8.982-15.531.655-6.503-1.076-12.303-5.38-17.215Zm-1.965 26.664c-6.783 8.093-18.385 7.392-24.279-1.403-2.058-3.088-3.134-6.549-3.134-11.414.093-4.632 2.105-9.497 6.643-13.146 6.502-5.192 15.25-4.116 20.723 2.339 5.52 6.596 5.567 17.028.047 23.624ZM134.949 18.39c.14-4.303-1.123-8.326-3.555-11.928-1.778-2.62-4.21-4.445-7.391-5.193-1.918-.468-3.883-.281-5.801-.374-.655 0-.795.187-.795.795v40.137c-.047.328.093.468.421.421a15.363 15.363 0 0 1 2.058 0c.608.047.795-.093.795-.748-.047-2.339 0-4.725 0-7.064 0-.187-.14-.561.234-.561.561-.047 1.076-.094 1.591.468 2.151 2.526 4.35 5.005 6.549 7.484.14.187.28.421.608.421h4.163c-2.853-3.227-5.613-6.408-8.42-9.59 1.31-.467 2.479-1.029 3.508-1.871 3.883-3.181 5.848-7.391 6.035-12.397Zm-12.537 11.649c-.187.047-.374.047-.561.047-1.123 0-1.217-.094-1.217-1.217V4.871c0-.515.141-.655.655-.702 2.059-.187 3.836.421 5.38 1.778 4.023 3.508 6.877 10.806 4.257 17.075-1.591 3.836-4.397 6.268-8.514 7.017ZM81.666 18.344c.141-4.304-1.169-8.28-3.555-11.882-1.778-2.62-4.21-4.491-7.391-5.24-1.918-.468-3.93-.281-5.894-.374-.655 0-.749.187-.749.748v40.231c-.047.328.094.421.374.375.749 0 1.451-.047 2.199 0 .515.046.655-.094.655-.655-.047-2.386 0-4.772 0-7.158 0-.187-.14-.561.187-.561.515-.047 1.076-.187 1.544.374 2.198 2.526 4.397 5.052 6.596 7.532.14.187.234.421.514.421h4.257c-2.853-3.228-5.613-6.409-8.42-9.59 1.357-.468 2.479-1.029 3.508-1.871 3.977-3.088 5.988-7.345 6.175-12.35Zm-12.49 11.695c-.14.047-.281.047-.421.047-1.216.093-1.403-.094-1.403-1.31V4.871c0-.468.093-.608.608-.655 2.058-.187 3.883.421 5.426 1.778 4.023 3.508 6.83 10.806 4.257 16.981-1.59 3.836-4.35 6.268-8.467 7.064Zm152.27-11.649c.14-4.303-1.123-8.326-3.556-11.928-1.777-2.62-4.21-4.445-7.391-5.24-1.918-.468-3.883-.281-5.801-.374-.608 0-.795.14-.795.795v39.95c-.093.515.047.702.608.655a13.341 13.341 0 0 1 1.918 0c.608.047.702-.14.702-.748-.047-2.339 0-4.725 0-7.064 0-.187-.14-.561.187-.561.561-.047 1.076-.141 1.591.468 2.152 2.526 4.35 5.005 6.549 7.484.14.187.281.421.608.421h4.163c-2.853-3.227-5.613-6.408-8.42-9.59 1.31-.467 2.479-1.029 3.509-1.871 3.929-3.181 5.941-7.391 6.128-12.397Zm-12.537 11.649c-.141.047-.281.047-.421.047-1.17.046-1.357-.094-1.357-1.264V4.918c0-.468.094-.655.608-.702 2.058-.187 3.836.421 5.38 1.778 4.023 3.508 6.877 10.806 4.304 17.075-1.591 3.789-4.398 6.174-8.514 6.97Z" style="fill:#fff"/>
</svg>

<?xml version="1.0" encoding="utf-8"?>
<svg version="1.1" id="Layer_1" x="0px" y="0px" style="enable-background:new 0 0 564.2 91;" viewBox="0 0 264 42" xmlns="http://www.w3.org/2000/svg">
  <style type="text/css">
	.st0{fill:#FFFFFF;}
	.st1{fill:#111113;}
</style>
  <g>
    <path class="st1" d="M 247.877 10.859 C 248.11 11.748 248.391 12.59 248.625 13.432 C 248.906 14.461 248.906 14.508 250.028 14.461 C 250.637 14.414 250.73 14.648 250.73 15.209 C 250.73 21.057 250.73 26.951 250.73 32.799 C 250.73 35.746 250.73 38.74 250.73 41.687 C 250.73 42.108 250.824 42.295 251.292 42.295 C 251.946 42.248 252.601 42.248 253.256 42.295 C 253.864 42.342 253.958 42.108 253.958 41.547 C 253.958 32.799 253.958 24.004 253.911 15.256 C 253.911 14.648 254.005 14.414 254.706 14.461 C 256.484 14.508 258.215 14.508 259.993 14.461 C 260.601 14.461 260.741 14.601 260.741 15.209 C 260.694 23.349 260.741 31.489 260.741 39.629 C 260.741 40.33 260.788 41.079 260.741 41.781 C 260.741 42.202 260.881 42.295 261.256 42.295 C 261.911 42.248 262.566 42.248 263.22 42.295 C 263.875 42.342 263.969 42.155 263.969 41.547 C 263.969 28.261 263.969 14.929 263.969 1.643 C 263.969 1.55 263.969 1.409 263.969 1.316 C 264.016 0.988 263.875 0.941 263.595 0.941 C 262.846 0.941 262.145 0.988 261.396 0.941 C 260.881 0.895 260.741 1.082 260.741 1.596 C 260.788 4.45 260.741 7.35 260.788 10.204 C 260.788 10.719 260.694 10.906 260.133 10.906 C 258.309 10.859 256.484 10.859 254.66 10.906 C 254.145 10.906 254.005 10.812 254.005 10.251 C 254.052 7.35 254.005 4.403 254.052 1.503 C 254.052 1.035 253.911 0.895 253.49 0.941 C 252.835 0.988 252.18 0.988 251.525 0.941 C 251.011 0.895 250.824 1.035 250.824 1.596 C 250.87 4.497 250.824 7.444 250.87 10.344 C 250.87 10.765 250.777 10.906 250.309 10.906 C 249.42 10.859 248.672 10.859 247.877 10.859 Z" style="fill: rgb(255, 255, 255);"/>
    <path class="st1" d="M 85.081 10.859 C 85.362 11.841 85.69 12.73 85.877 13.619 C 86.017 14.367 86.344 14.601 87.046 14.461 C 87.654 14.367 87.841 14.555 87.795 15.209 C 87.748 23.536 87.795 31.91 87.795 40.237 C 87.795 40.751 87.795 41.313 87.795 41.827 C 87.795 42.202 87.935 42.248 88.262 42.248 C 91.21 42.248 94.157 42.248 97.104 42.248 C 97.478 42.248 97.572 42.155 97.572 41.781 C 97.525 40.939 97.525 40.097 97.572 39.254 C 97.572 38.787 97.478 38.6 96.964 38.6 C 95.186 38.646 93.455 38.6 91.677 38.646 C 91.116 38.646 90.976 38.459 90.976 37.945 C 90.976 30.319 90.976 22.694 90.976 15.069 C 90.976 14.555 91.116 14.414 91.631 14.414 C 93.783 14.461 95.934 14.414 98.086 14.414 C 98.554 14.414 98.648 14.274 98.461 13.853 C 98.18 13.058 97.852 12.215 97.618 11.42 C 97.478 10.952 97.244 10.765 96.73 10.765 C 94.999 10.812 93.315 10.765 91.584 10.812 C 91.022 10.812 90.882 10.625 90.929 10.11 C 90.976 8.38 90.976 6.649 90.929 4.918 C 90.929 4.356 91.116 4.263 91.631 4.263 C 93.408 4.31 95.139 4.263 96.917 4.263 C 97.431 4.263 97.572 4.123 97.525 3.608 C 97.478 2.859 97.478 2.111 97.525 1.362 C 97.572 0.848 97.338 0.754 96.87 0.754 C 94.016 0.754 91.21 0.801 88.356 0.754 C 87.795 0.754 87.701 0.941 87.701 1.409 C 87.748 4.31 87.701 7.257 87.701 10.157 C 87.701 10.578 87.608 10.719 87.14 10.719 C 86.578 10.859 85.877 10.859 85.081 10.859 Z" style="fill: rgb(255, 255, 255);"/>
    <path class="st1" d="M 224.861 21.104 C 224.907 25.688 225.796 29.758 227.995 33.407 C 231.41 39.114 236.509 42.061 243.199 42.295 C 243.76 42.295 243.9 42.108 243.853 41.593 C 243.807 40.845 243.807 40.097 243.853 39.348 C 243.9 38.833 243.76 38.646 243.199 38.646 C 237.211 38.459 232.907 35.559 230.24 30.319 C 228.229 26.296 227.714 22.039 228.556 17.642 C 229.211 14.18 230.568 11.046 233.094 8.52 C 235.854 5.76 239.175 4.356 243.105 4.31 C 243.76 4.31 243.9 4.123 243.853 3.514 C 243.807 2.766 243.807 1.971 243.853 1.222 C 243.853 0.801 243.76 0.661 243.339 0.661 C 242.684 0.708 241.982 0.708 241.327 0.801 C 236.883 1.316 233.094 3.187 230.147 6.555 C 226.404 10.812 225.001 15.911 224.861 21.104 Z" style="fill: rgb(255, 255, 255);"/>
    <path class="st1" d="M 106.039 23.349 C 106.039 29.384 106.039 35.465 106.039 41.5 C 106.039 42.108 106.132 42.389 106.834 42.295 C 107.396 42.248 107.957 42.248 108.518 42.295 C 109.173 42.342 109.407 42.202 109.407 41.453 C 109.36 29.431 109.407 17.408 109.36 5.339 C 109.36 4.59 109.594 4.45 110.249 4.497 C 111.185 4.544 112.12 4.497 113.056 4.497 C 113.43 4.497 113.571 4.403 113.524 4.029 C 113.477 3.14 113.524 2.205 113.524 1.316 C 113.524 0.988 113.43 0.895 113.103 0.895 C 109.547 0.895 105.992 0.895 102.437 0.895 C 102.063 0.895 101.969 1.035 101.969 1.362 C 101.969 2.205 102.016 3.047 101.969 3.889 C 101.969 4.356 102.063 4.544 102.577 4.497 C 103.513 4.45 104.448 4.497 105.384 4.45 C 105.945 4.403 106.086 4.59 106.086 5.152 C 106.039 11.233 106.039 17.315 106.039 23.349 Z" style="fill: rgb(255, 255, 255);"/>
    <path class="st1" d="M 60.007 25.127 C 58.931 20.963 57.902 16.8 56.873 12.59 C 56.779 12.169 56.592 12.075 56.218 12.075 C 55.329 12.122 54.487 12.122 53.598 12.075 C 53.084 12.028 53.037 12.215 53.177 12.637 C 53.692 14.695 54.206 16.753 54.721 18.812 C 54.861 19.326 54.815 19.513 54.206 19.466 C 52.569 19.42 50.932 19.42 49.295 19.466 C 48.78 19.466 48.593 19.326 48.499 18.858 C 47.985 16.753 47.47 14.695 46.956 12.637 C 46.862 12.215 46.722 12.075 46.254 12.075 C 43.681 12.122 41.155 12.075 38.582 12.075 C 38.395 12.075 38.208 12.169 38.067 11.935 C 39.33 10.391 40.593 8.801 41.95 7.163 C 40.827 7.163 39.798 7.163 38.816 7.163 C 38.442 7.163 38.161 7.257 37.927 7.584 C 36.757 8.988 35.541 10.344 34.325 11.701 C 34.091 11.982 33.857 12.122 33.436 12.122 C 31.144 12.122 28.852 12.122 26.559 12.122 C 26.185 12.122 25.904 12.028 25.671 11.748 C 24.501 10.344 23.285 8.988 22.068 7.631 C 21.928 7.444 21.835 7.21 21.554 7.21 C 20.431 7.21 19.308 7.21 18.045 7.21 C 19.402 8.894 20.665 10.485 22.022 12.122 C 21.647 12.122 21.414 12.122 21.18 12.122 C 18.7 12.122 16.268 12.122 13.788 12.122 C 13.321 12.122 13.087 12.215 12.993 12.73 C 12.525 14.742 11.964 16.706 11.543 18.671 C 11.403 19.373 11.122 19.56 10.42 19.513 C 8.876 19.466 7.333 19.466 5.789 19.513 C 5.228 19.513 5.087 19.42 5.274 18.858 C 5.836 16.8 6.304 14.742 6.865 12.683 C 7.005 12.215 6.865 12.075 6.397 12.122 C 5.649 12.169 4.853 12.169 4.058 12.122 C 3.45 12.075 3.216 12.262 3.076 12.87 C 2.093 16.894 1.064 20.917 0.082 24.94 C -0.105 25.735 -0.105 25.735 0.643 25.735 C 3.497 25.735 6.304 25.735 9.157 25.735 C 9.625 25.735 9.765 25.829 9.625 26.343 C 9.251 27.606 9.017 28.869 8.643 30.132 C 8.502 30.647 8.643 30.694 9.11 30.694 C 11.73 30.694 14.303 30.694 16.923 30.694 C 17.157 30.694 17.39 30.6 17.624 30.787 C 15.519 33.173 13.414 35.559 11.262 38.038 C 13.18 38.038 14.958 38.038 16.689 38.038 C 16.923 38.038 17.016 37.804 17.157 37.664 C 18.934 35.512 20.712 33.313 22.443 31.115 C 22.723 30.787 23.004 30.647 23.425 30.647 C 27.729 30.647 32.033 30.647 36.336 30.647 C 36.851 30.647 37.132 30.787 37.459 31.161 C 39.19 33.313 40.921 35.418 42.652 37.524 C 42.792 37.711 42.932 37.991 43.213 37.991 C 44.991 37.991 46.768 37.991 48.64 37.991 C 46.441 35.512 44.336 33.126 42.184 30.6 C 45.318 30.6 48.312 30.6 51.4 30.6 C 50.979 28.963 50.604 27.372 50.183 25.688 C 50.511 25.688 50.745 25.688 50.979 25.688 C 53.785 25.688 56.592 25.688 59.399 25.688 C 59.914 25.688 60.148 25.688 60.007 25.127 Z M 22.443 21.946 C 20.712 21.946 18.934 21.946 17.157 21.946 C 16.829 21.946 16.735 21.852 16.735 21.525 C 16.735 19.747 16.735 17.969 16.735 16.192 C 16.735 15.864 16.829 15.771 17.157 15.771 C 18.934 15.771 20.665 15.771 22.443 15.771 C 22.864 15.771 22.957 15.958 22.91 16.332 C 22.91 17.174 22.91 18.063 22.91 18.905 C 22.91 19.747 22.91 20.589 22.91 21.431 C 22.957 21.805 22.864 21.993 22.443 21.946 Z M 42.839 21.946 C 41.95 21.946 41.061 21.946 40.172 21.946 C 39.284 21.946 38.442 21.946 37.553 21.946 C 37.225 21.946 37.132 21.899 37.132 21.525 C 37.132 19.747 37.132 17.969 37.132 16.192 C 37.132 15.864 37.225 15.771 37.553 15.771 C 39.33 15.771 41.061 15.771 42.839 15.771 C 43.213 15.771 43.307 15.864 43.307 16.239 C 43.307 17.969 43.307 19.747 43.307 21.478 C 43.353 21.899 43.166 21.993 42.839 21.946 Z" style="fill: rgb(255, 255, 255);"/>
    <path class="st1" d="M 200.254 6.041 C 200.254 5.76 200.254 5.479 200.254 5.198 C 200.114 3.187 199.225 1.643 197.354 0.801 C 195.67 0.053 193.939 -0.088 192.161 0.333 C 189.542 0.988 188.138 2.579 187.904 5.198 C 187.764 6.883 187.811 8.567 187.858 10.251 C 187.858 10.765 187.764 10.952 187.203 10.906 C 186.548 10.859 185.846 10.906 185.097 10.906 C 185.378 11.888 185.706 12.777 185.893 13.712 C 186.033 14.414 186.361 14.648 187.015 14.555 C 187.717 14.414 187.858 14.742 187.811 15.397 C 187.811 24.144 187.811 32.939 187.764 41.687 C 187.764 42.202 187.858 42.436 188.419 42.389 C 189.027 42.342 189.682 42.342 190.337 42.389 C 190.992 42.482 191.132 42.202 191.132 41.593 C 191.132 32.846 191.132 24.051 191.085 15.303 C 191.085 14.648 191.272 14.555 191.834 14.555 C 193.284 14.601 194.734 14.601 196.184 14.555 C 196.746 14.555 196.886 14.695 196.886 15.256 C 196.886 22.694 196.886 30.132 196.886 37.524 C 196.886 38.974 196.886 40.424 196.886 41.874 C 196.886 42.295 196.98 42.389 197.401 42.389 C 198.102 42.342 198.804 42.342 199.506 42.389 C 200.114 42.436 200.301 42.295 200.254 41.64 C 200.254 29.711 200.254 17.876 200.254 6.041 Z M 196.325 10.859 C 195.576 10.812 194.781 10.859 193.986 10.859 C 193.144 10.859 192.348 10.859 191.506 10.859 C 191.179 10.859 191.085 10.765 191.085 10.438 C 191.085 8.894 191.085 7.304 191.085 5.76 C 191.085 5.105 191.413 4.59 192.021 4.31 C 193.331 3.655 194.641 3.655 195.951 4.263 C 196.605 4.59 196.933 5.105 196.933 5.853 C 196.933 7.35 196.886 8.847 196.933 10.344 C 196.933 10.812 196.746 10.906 196.325 10.859 Z" style="fill: rgb(255, 255, 255);"/>
    <path class="st1" d="M 170.97 6.649 C 164.561 -0.696 153.989 -1.772 146.363 4.216 C 140.843 8.567 138.411 14.508 138.224 20.917 C 138.271 27.326 140.142 32.518 144.212 36.775 C 150.48 43.418 159.977 44.494 167.368 39.395 C 172.794 35.652 175.695 30.319 176.35 23.864 C 177.005 17.361 175.274 11.561 170.97 6.649 Z M 169.005 33.313 C 162.222 41.406 150.62 40.705 144.726 31.91 C 142.668 28.822 141.592 25.361 141.592 20.496 C 141.685 15.864 143.697 10.999 148.235 7.35 C 154.737 2.158 163.485 3.234 168.958 9.689 C 174.478 16.285 174.525 26.717 169.005 33.313 Z" style="fill: rgb(255, 255, 255);"/>
    <path class="st1" d="M 134.949 18.39 C 135.089 14.087 133.826 10.064 131.394 6.462 C 129.616 3.842 127.184 2.017 124.003 1.269 C 122.085 0.801 120.12 0.988 118.202 0.895 C 117.547 0.895 117.407 1.082 117.407 1.69 C 117.407 14.976 117.407 28.214 117.407 41.5 C 117.407 41.593 117.407 41.734 117.407 41.827 C 117.36 42.155 117.5 42.295 117.828 42.248 C 118.529 42.202 119.184 42.202 119.886 42.248 C 120.494 42.295 120.681 42.155 120.681 41.5 C 120.634 39.161 120.681 36.775 120.681 34.436 C 120.681 34.249 120.541 33.875 120.915 33.875 C 121.476 33.828 121.991 33.781 122.506 34.343 C 124.657 36.869 126.856 39.348 129.055 41.827 C 129.195 42.014 129.335 42.248 129.663 42.248 C 131.02 42.248 132.376 42.248 133.826 42.248 C 130.973 39.021 128.213 35.84 125.406 32.658 C 126.716 32.191 127.885 31.629 128.914 30.787 C 132.797 27.606 134.762 23.396 134.949 18.39 Z M 122.412 30.039 C 122.225 30.086 122.038 30.086 121.851 30.086 C 120.728 30.086 120.634 29.992 120.634 28.869 C 120.634 24.94 120.634 21.01 120.634 17.081 C 120.634 13.011 120.634 8.941 120.634 4.871 C 120.634 4.356 120.775 4.216 121.289 4.169 C 123.348 3.982 125.125 4.59 126.669 5.947 C 130.692 9.455 133.546 16.753 130.926 23.022 C 129.335 26.858 126.529 29.29 122.412 30.039 Z" style="fill: rgb(255, 255, 255);"/>
    <path class="st1" d="M 81.666 18.344 C 81.807 14.04 80.497 10.064 78.111 6.462 C 76.333 3.842 73.901 1.971 70.72 1.222 C 68.802 0.754 66.79 0.941 64.826 0.848 C 64.171 0.848 64.077 1.035 64.077 1.596 C 64.077 14.882 64.077 28.168 64.077 41.5 C 64.077 41.593 64.077 41.734 64.077 41.827 C 64.03 42.155 64.171 42.248 64.451 42.202 C 65.2 42.202 65.902 42.155 66.65 42.202 C 67.165 42.248 67.305 42.108 67.305 41.547 C 67.258 39.161 67.305 36.775 67.305 34.389 C 67.305 34.202 67.165 33.828 67.492 33.828 C 68.007 33.781 68.568 33.641 69.036 34.202 C 71.234 36.728 73.433 39.254 75.632 41.734 C 75.772 41.921 75.866 42.155 76.146 42.155 C 77.55 42.155 78.906 42.155 80.403 42.155 C 77.55 38.927 74.79 35.746 71.983 32.565 C 73.34 32.097 74.462 31.536 75.491 30.694 C 79.468 27.606 81.479 23.349 81.666 18.344 Z M 69.176 30.039 C 69.036 30.086 68.895 30.086 68.755 30.086 C 67.539 30.179 67.352 29.992 67.352 28.776 C 67.352 24.893 67.352 20.963 67.352 17.081 C 67.352 13.011 67.352 8.941 67.352 4.871 C 67.352 4.403 67.445 4.263 67.96 4.216 C 70.018 4.029 71.843 4.637 73.386 5.994 C 77.409 9.502 80.216 16.8 77.643 22.975 C 76.053 26.811 73.293 29.243 69.176 30.039 Z" style="fill: rgb(255, 255, 255);"/>
    <path class="st1" d="M 221.446 18.39 C 221.586 14.087 220.323 10.064 217.89 6.462 C 216.113 3.842 213.68 2.017 210.499 1.222 C 208.581 0.754 206.616 0.941 204.698 0.848 C 204.09 0.848 203.903 0.988 203.903 1.643 C 203.903 14.929 203.903 28.168 203.903 41.453 C 203.903 41.5 203.903 41.547 203.903 41.593 C 203.81 42.108 203.95 42.295 204.511 42.248 C 205.119 42.202 205.774 42.202 206.429 42.248 C 207.037 42.295 207.131 42.108 207.131 41.5 C 207.084 39.161 207.131 36.775 207.131 34.436 C 207.131 34.249 206.991 33.875 207.318 33.875 C 207.879 33.828 208.394 33.734 208.909 34.343 C 211.061 36.869 213.259 39.348 215.458 41.827 C 215.598 42.014 215.739 42.248 216.066 42.248 C 217.423 42.248 218.779 42.248 220.229 42.248 C 217.376 39.021 214.616 35.84 211.809 32.658 C 213.119 32.191 214.288 31.629 215.318 30.787 C 219.247 27.606 221.259 23.396 221.446 18.39 Z M 208.909 30.039 C 208.768 30.086 208.628 30.086 208.488 30.086 C 207.318 30.132 207.131 29.992 207.131 28.822 C 207.131 24.893 207.131 20.963 207.131 17.034 C 207.131 13.011 207.131 8.941 207.131 4.918 C 207.131 4.45 207.225 4.263 207.739 4.216 C 209.797 4.029 211.575 4.637 213.119 5.994 C 217.142 9.502 219.996 16.8 217.423 23.069 C 215.832 26.858 213.025 29.243 208.909 30.039 Z" style="fill: rgb(255, 255, 255);"/>
  </g>
</svg>
